!!!!SEGMENT: T811_Bri-w29p12hIm6-14.krn
!!!COM: Britten, (Edward) Benjamin
!!!OTL: String Quartet No. 2 in C, op. 36
!!!OMV: I: Allegro calmo senza rigore
!!!OMD:
!!!AGN: Instrumental; Chamber
!!!AGN-sub: Chamber
!!!CNT: English
!!!ODT: 1945
!!!OPR: String Quartet No. 2 in C, op. 36
!!!filename: T811_Bri-w29p12hIm6-14.krn
**kern	**dynam	**kern	**dynam	**kern	**dynam	**kern	**dynam
*grp:A	*	*grp:A	*	*grp:A	*	*grp:B	*
*part4	*	*part3	*	*part2	*	*part1	*
*staff4	*	*staff3	*	*staff2	*	*staff1	*
*ICstr	*	*ICstr	*	*ICstr	*	*ICstr	*
*Icello	*	*Iviola	*	*Ivioln	*	*Ivioln	*
*I"Violoncello	*	*I"Viola	*	*I"Violin II	*	*I"Violin I	*
*I'vc	*	*I'vla	*	*I'vn	*	*I'vn	*
*clefF4	*	*clefC3	*	*clefG2	*	*clefG2	*
*k[]	*	*k[]	*	*k[]	*	*k[]	*
*C:	*	*C:	*	*C:	*	*C:	*
!!LO:TX:omd:tempo:a:t=[Allegro calmo senza rigore]\n[[half]=80]
*M4/4	*	*M4/4	*	*M4/4	*	*M4/4	*
=1	=1	=1	=1	=1	=1	=1	=1
!	!LO:DY:t=[sempre %s ]	!	!LO:DY:ed=brack	!	!LO:DY:ed=brack	!LO:TX:t=[half]=80	!LO:DY:t=[ %s sempre e legato ]
2CC#X)	ppp	4r	pp	4r	pp	(4gg#X	ppp
.	.	4C#`>X	.	4c#`>X	.	4ffH	.
(6BBB#X	.	8BB#`>XL	.	8B#`>XL	.	4eeeor)h 4eeeeyy	.
.	.	8C#`>	.	8c#`>	.	.	.
6CC#X	.	.	.	.	.	.	.
.	.	8D#`>X	.	8d#`>X	.	(4ccc	.
6DD#X	.	.	.	.	.	.	.
.	.	8C#`>J	.	8c#`>J	.	.	.
=2	=2	=2	=2	=2	=2	=2	=2
[1CC#X	.	2r	.	2r	.	4a)	.
.	.	.	.	.	.	(4gg#X	.
.	.	4r	.	4r	.	4ffH	.
.	.	4C#`>X	.	4c#`>X	.	4eeeor)h 4eeeeyy	.
=3	=3	=3	=3	=3	=3	=3	=3
4CC#])	.	4C#`>X	<	4c#`>X	<	(4ccc	.
(4DD#X	<	8D#`>XL	.	8d#`>XL	.	4a)	.
.	.	8E`>J	.	8e`>J	.	.	.
6EE	.	8E`>L	.	8e`>L	.	(4bb-X	<
.	.	8F#`>X	.	8f#`>X	.	.	.
6FF#X	.	.	.	.	.	.	.
.	.	8G`>	.	8g`>	.	4b-XH	.
6GG	[	.	.	.	.	.	.
.	.	8F#`>J	[	8f#`>J	[	.	[[
=4	=4	=4	=4	=4	=4	=4	=4
!LO:TX:b:i:t=poco a poco più sonoro	!	!	!LO:DY:t=poco a poco più %s	!	!LO:DY:t=poco a poco più %s	!	!LO:DY:t=poco a poco più %s
2.FF#X)	.	4F#`>X	f	4f#`>X	f	4aaor)h 4aaayy	f
.	.	4r	.	4r	.	(4ff	.
.	.	4r	.	4r	.	4d)	.
(4EE#X	.	8E#X`>L	.	8e#X`>L	.	(4cc#X	.
.	.	8F#`>J	.	8f#`>J	.	.	.
=5	=5	=5	=5	=5	=5	=5	=5
6FF#X	.	8G#`>^>XL	.	8g#`>^>XL	.	4b-XH	.
.	.	8F#`>XJ	.	8f#`>XJ	.	.	.
6GG#X	.	.	.	.	.	.	.
.	.	4r	.	4r	.	4aaor)h 4aaayy	.
6FF#)	.	.	.	.	.	.	.
(6EE#X	.	8E#`>^>XL	.	8e#`>^>XL	.	(4ff	.
.	.	8F#`>J	.	8f#`>J	.	.	.
6FF#	.	.	.	.	.	.	.
.	.	4r	.	4r	.	4d)	.
6GG#	.	.	.	.	.	.	.
=6	=6	=6	=6	=6	=6	=6	=6
2.FF#X)	.	8G#`>^>XL	.	8g#`>^>XL	.	(4cc#X	.
.	.	8F#`>XJ	.	8f#`>XJ	.	.	.
.	.	4r	.	4r	.	4b-XH	.
.	.	4r	.	4r	.	4aaor)h 4aaayy	.
([4FF#	.	4F#`>	.	4f#`>	.	(4ff	.
=7	=7	=7	=7	=7	=7	=7	=7
4FF#]	.	4F#`>X	.	4f#`>X	.	4d)	.
8EE#XL	.	8E#`>XL	.	8e#`>XL	.	(4cc#X	.
8FF#XJ	.	8F#`>J	.	8f#`>J	.	.	.
8GG#XL	.	8G#`>XL	.	8g#`>XL	.	4b-XH	.
[8FF#J	.	8F#`>J	.	8f#`>J	.	.	.
4FF#])	.	4F#`>	.	4f#`>	.	4aaor)h 4aaayy	.
=8	=8	=8	=8	=8	=8	=8	=8
(4EE#X	.	8E#`>XL	.	8e#`>XL	.	(4ff	.
.	.	8F#`>J	.	8f#`>J	.	.	.
8FF#XL	<	8F#`>XL	<	8f#`>XL	<	4d	.
8GG#XJ	.	8G#`>XJ	.	8g#`>XJ	.	.	.
8AAL	.	8A`>L	.	8aL`>	.	4ee-X)	<
8BB	.	8B`>J	.	8bJ`>	.	.	.
8C	.	8c`>L	.	8ccL`>	.	(>[4e-X	.
8BBJ)	[	8B`>J	[	8bJ`>	[	.	[
=9	=9	=9	=9	=9	=9	=9	=9
2.BB	mf	4B^	mf	4b^	mf	4e-] 4dd)	mf
.	.	4r	.	4r	.	(>4e-X 4b-X	.
.	.	4r	.	4r	.	4G)	.
[4BB	.	4B`>	.	4b`	.	(4iG (>4f#Xi	.
=	=	=	=	=	=	=	=
*-	*-	*-	*-	*-	*-	*-	*-
!!!system-decoration: [(s1,s2,s3,s4)]
!!!RDF**kern: > = above
!!!RDF**kern: < = below
!!!RDF**kern: i = marked note, color="hotpink", text="extra("
!!!EED: Gabriella Vici
!!!EEV: 2021/10/04
!!!EED2: Jason Lee
!!!Suter_Work_ID: Bri-29
!!!Suter_Example_Number: 811
!!!Suter_Example_ID: Bri-29/12/[I]6-14
!!!Premiere_Location: London,England
!!!Other_Tsigs: none
!!!Full_Unit_Duration: 7:45
!!!First_Publication_Year: 1946
!!!First_Public_Performance_Year: 1945
!!!Example_Total_Measures: 9
!!!Example_Timestamp_Duration: 12
!!!Example_Start_Tsig_Type: simple duple
!!!Example_Start_Tsig_Mean_Beat_Rate: 80
!!!Example_Start_Tsig_Beat_Rate: 80
!!!Example_Start_Tsig_Beat: half
!!!Example_Start_Tsig: 2/2
!!!Example_Start_Timestamp: 4:27
!!!Example_Start_Tempo_Expression: [Allegro calmo senza rigore]
!!!Example_Start_Notated_Beat_Rate: [80]
!!!Example_Start_Notated_Beat: [half]
!!!Example_Start_Measure: 179
!!!Example_Metadata_Validated: Y
!!!Example_End_Timestamp: 4:39
!!!Example_End_Measure: 187
!!!Example_Dataset: T
!!!Editorial_Comments: Example Start Notated Beat and Example Start Notated Beat Rate [half=80] based on most recent notated beat rate (SWFU, m. 1). Example Start Tempo Expression [Allegro calmo senza rigore] based on most recent notated tempo expression (SWFU, m. 1).
!!!Death_Place: Aldeburgh,England
!!!Death_Date: 4-Dec-1976
!!!Changing_Tsig: no
!!!Birth_Place: Lowestoft,England
!!!Birth_Date: 22-Nov-1913
!!!Audio_Example_Quarter_Note_Tempo:
!!!Audio_Example_Duration:
!!!EEV2: 2022/03/09
